packages/tokens/icons/figureGear/size32Px.svg

<svg viewBox="0 0 32 32" fill="none" xmlns="http://www.w3.org/2000/svg" width="1em" height="1em"><path d="M6.5 25.5L6.5 20.8333C6.5 17.6117 8.84505 15.5 11.7672 15.5L15.5 15.5" stroke="currentColor" stroke-linecap="round" stroke-linejoin="round"/><path d="M16 12.5C18.7614 12.5 21 10.2614 21 7.5C21 4.73858 18.7614 2.5 16 2.5C13.2386 2.5 11 4.73858 11 7.5C11 10.2614 13.2386 12.5 16 12.5Z" stroke="currentColor" stroke-linecap="round" stroke-linejoin="round"/><path d="M27.2058 19.7661H26.6043C26.4809 19.2262 26.265 18.7326 25.9874 18.2699L26.4038 17.8535C26.5272 17.7301 26.5272 17.545 26.4038 17.4216L25.0929 16.1105C24.9695 15.9871 24.7844 15.9871 24.6611 16.1105L24.2446 16.527C23.782 16.2494 23.2884 16.0334 22.7486 15.91V15.3085C22.7486 15.1388 22.6098 15 22.4402 15L20.5895 15C20.4198 15 20.281 15.1388 20.281 15.3085V15.91C19.7412 16.0334 19.2477 16.2494 18.785 16.527L18.3532 16.1105C18.2298 15.9871 18.0447 15.9871 17.9214 16.1105L16.6104 17.4216C16.487 17.545 16.487 17.7301 16.6104 17.8535L17.0268 18.2699C16.7492 18.7326 16.5333 19.2262 16.4099 19.7661H15.8085C15.6388 19.7661 15.5 19.9049 15.5 20.0746L15.5 21.9254C15.5 22.0951 15.6388 22.2339 15.8085 22.2339H16.4099C16.5333 22.7738 16.7492 23.2674 17.0268 23.7301L16.6104 24.1465C16.487 24.2699 16.487 24.455 16.6104 24.5784L17.9214 25.8895C18.0447 26.0129 18.2298 26.0129 18.3532 25.8895L18.7696 25.473C19.2323 25.7506 19.7258 25.9666 20.2656 26.09V26.6915C20.2656 26.8612 20.4044 27 20.5741 27H22.4248C22.5944 27 22.7332 26.8612 22.7332 26.6915V26.09C23.273 25.9666 23.7665 25.7506 24.2292 25.473L24.6456 25.8895C24.769 26.0129 24.9541 26.0129 25.0775 25.8895L26.3884 24.5784C26.5118 24.455 26.5118 24.2699 26.3884 24.1465L25.972 23.7301C26.2496 23.2674 26.4655 22.7738 26.5889 22.2339H27.1904C27.36 22.2339 27.4988 22.0951 27.4988 21.9254V20.0746C27.5142 19.9049 27.3754 19.7661 27.2058 19.7661Z" stroke="currentColor" stroke-miterlimit="10"/><circle cx="21.5001" cy="21" r="3" stroke="currentColor"/></svg>

<svg xmlns="http://www.w3.org/2000/svg" fill="none" viewBox="0 0 32 32" width="1em" height="1em"><path stroke="currentColor" stroke-linecap="round" stroke-linejoin="round" d="M6.5 25.5v-4.667c0-3.221 2.345-5.333 5.267-5.333H15.5m.5-3a5 5 0 1 0 0-10 5 5 0 0 0 0 10Z"/><path stroke="currentColor" stroke-miterlimit="10" d="M27.206 19.766h-.602a5.108 5.108 0 0 0-.617-1.496l.417-.416a.298.298 0 0 0 0-.432l-1.311-1.312a.298.298 0 0 0-.432 0l-.416.417a5.107 5.107 0 0 0-1.496-.617v-.601A.31.31 0 0 0 22.44 15h-1.85a.31.31 0 0 0-.309.309v.601c-.54.123-1.033.34-1.496.617l-.432-.417a.298.298 0 0 0-.432 0l-1.31 1.312a.298.298 0 0 0 0 .431l.416.417a5.108 5.108 0 0 0-.617 1.496h-.601a.31.31 0 0 0-.309.309v1.85c0 .17.139.309.309.309h.6c.124.54.34 1.033.618 1.496l-.417.416a.298.298 0 0 0 0 .432l1.311 1.312a.298.298 0 0 0 .432 0l.417-.417c.462.278.956.494 1.496.617v.602c0 .17.138.308.308.308h1.85a.31.31 0 0 0 .31-.308v-.602a5.109 5.109 0 0 0 1.495-.617l.417.417a.298.298 0 0 0 .431 0l1.311-1.312a.298.298 0 0 0 0-.431l-.416-.417c.278-.463.493-.956.617-1.496h.601a.31.31 0 0 0 .309-.309v-1.85a.287.287 0 0 0-.293-.309Z"/><circle cx="21.5" cy="21" r="3" stroke="currentColor"/></svg>
